src/images/svg/principles/fare.svg

<svg width="180" height="176" viewBox="0 0 180 176" fill="none" xmlns="http://www.w3.org/2000/svg">
<g clip-path="url(#clip0_6717_151906)">
<path d="M97.8261 94.5852L79.4348 93.516L70.9435 102.222C66.657 106.433 60.8633 108.856 54.7826 108.981C52.5118 108.967 50.256 108.62 48.0913 107.95C44.5602 106.851 41.2974 105.058 38.5043 102.68L35.8435 100.198L38.2696 97.5255L61.7478 71.5596L38.2696 51.7415L0 93.8979L34.8652 122.46C35.2956 122.46 35.687 122.46 36.1565 122.46H37.213C39.3101 122.674 41.2967 123.484 42.9261 124.79C44.0019 125.662 44.8857 126.737 45.5246 127.951C46.1634 129.165 46.544 130.493 46.6435 131.854L49.6956 128.303C51.2688 126.415 53.4773 125.134 55.9279 124.687C58.3785 124.24 60.9121 124.657 63.0775 125.862C65.2429 127.068 66.8996 128.984 67.7524 131.27C68.6053 133.556 68.5991 136.063 67.7348 138.345C68.6272 138.104 69.5478 137.975 70.4739 137.964C72.9502 137.963 75.3472 138.815 77.2435 140.369C78.3085 141.234 79.1859 142.297 79.8242 143.497C80.4626 144.697 80.849 146.01 80.9609 147.357C81.1045 148.93 80.8631 150.514 80.2565 151.977C81.0618 151.77 81.8891 151.655 82.7217 151.634C85.0805 151.647 87.3618 152.457 89.1783 153.925C90.1851 154.748 91.0154 155.758 91.6215 156.895C92.2276 158.032 92.5977 159.275 92.7104 160.552C92.8231 161.83 92.6763 163.116 92.2783 164.338C91.8803 165.559 91.2391 166.692 90.3913 167.672L87.3783 171.223H95.2043C96.5652 171.207 97.9071 170.909 99.1415 170.349C100.376 169.79 101.475 168.981 102.365 167.977L106.552 163.051C108.123 164.178 110.08 164.667 112.012 164.418C113.945 164.169 115.704 163.2 116.922 161.715L121.696 156.025L123.378 157.209C123.969 157.635 124.64 157.944 125.354 158.117C126.067 158.29 126.808 158.324 127.534 158.218C128.261 158.111 128.959 157.866 129.589 157.497C130.219 157.127 130.768 156.64 131.204 156.063L136.957 149.266L141.104 152.245C142.547 153.288 144.352 153.737 146.131 153.494C147.909 153.251 149.519 152.336 150.613 150.946L154.957 145.486C155.778 144.436 156.147 143.114 155.986 141.803C155.826 140.491 155.147 139.292 154.096 138.46L97.8261 94.5852Z" fill="#FFC359" fill-opacity="0.64"/>
<path d="M41.4015 136.775C42.5435 135.431 43.0941 133.701 42.9328 131.962C42.7715 130.223 41.9114 128.618 40.5406 127.496V127.496C39.3363 126.506 37.8111 125.964 36.2362 125.969C35.2435 125.964 34.2621 126.174 33.3624 126.584C32.4626 126.993 31.6668 127.591 31.0319 128.336L28.6841 131.085L26.571 133.644C25.4604 134.976 24.9251 136.678 25.0785 138.389C25.2319 140.099 26.062 141.685 27.3928 142.808V142.808C28.0678 143.372 28.8511 143.799 29.6969 144.064C30.5428 144.329 31.4343 144.427 32.3194 144.352C33.2045 144.278 34.0655 144.032 34.8522 143.629C35.6389 143.226 36.3356 142.675 36.9015 142.006L38.9754 139.639L41.4015 136.775Z" fill="#FFC359" fill-opacity="0.64"/>
<path d="M63.0394 139.038C64.162 137.704 64.7045 135.993 64.5509 134.273C64.3973 132.553 63.5598 130.96 62.2177 129.835C60.9964 128.848 59.4602 128.308 57.8742 128.308C56.8877 128.307 55.913 128.518 55.02 128.927C54.127 129.337 53.3379 129.934 52.709 130.675L42.4568 142.627L38.8177 146.828C37.6756 148.172 37.1251 149.902 37.2864 151.641C37.4477 153.379 38.3077 154.985 39.6786 156.107C40.8829 157.097 42.4081 157.638 43.9829 157.634C44.9717 157.638 45.9494 157.432 46.8482 157.029C47.747 156.627 48.5451 156.039 49.1873 155.305L52.709 151.143L63.0394 139.038Z" fill="#FFC359" fill-opacity="0.64"/>
<path d="M74.8946 143.084C73.6903 142.094 72.1651 141.552 70.5903 141.556C69.5976 141.552 68.6161 141.762 67.7164 142.171C66.8166 142.581 66.0208 143.179 65.3859 143.924L56.5424 154.234L54.1555 157.021C53.5713 157.67 53.124 158.425 52.8392 159.243C52.5545 160.061 52.4378 160.926 52.496 161.788C52.5541 162.65 52.786 163.492 53.1782 164.266C53.5704 165.041 54.1152 165.732 54.7816 166.3V166.3C55.4566 166.864 56.2399 167.291 57.0857 167.556C57.9316 167.821 58.8231 167.919 59.7082 167.845C60.5933 167.77 61.4543 167.524 62.241 167.121C63.0277 166.719 63.7244 166.167 64.2903 165.499L66.6381 162.749L75.5598 152.363C76.7251 151.043 77.309 149.328 77.1845 147.59C77.0599 145.852 76.2369 144.232 74.8946 143.084V143.084Z" fill="#FFC359" fill-opacity="0.64"/>
<path d="M86.7917 156.548C85.5328 155.523 83.9098 155.023 82.2756 155.159C80.6415 155.295 79.1285 156.055 78.0656 157.274L70.9438 165.713L70.709 166.018C69.7752 167.256 69.3606 168.794 69.5496 170.32C69.7387 171.846 70.5173 173.243 71.7264 174.228V174.228C72.8168 175.139 74.2043 175.64 75.6395 175.641C76.5513 175.649 77.4534 175.458 78.2795 175.081C79.1056 174.705 79.8348 174.152 80.4134 173.464L82.409 171.135L87.5351 165.178C88.0788 164.569 88.4916 163.86 88.7491 163.092C89.0066 162.325 89.1035 161.515 89.0342 160.71C88.9649 159.905 88.7306 159.122 88.3454 158.407C87.9602 157.692 87.4319 157.06 86.7917 156.548V156.548Z" fill="#FFC359" fill-opacity="0.64"/>
<path d="M180 77.4024L134.492 43.2267L116.257 66.9397L86.0874 64.1521H83.9352C80.6615 64.1511 77.4252 64.8319 74.4426 66.1489C71.46 67.4659 68.7998 69.3888 66.6396 71.7892L41.0874 100.046C43.9074 102.374 47.2644 103.999 50.87 104.781C52.153 105.075 53.4653 105.228 54.7831 105.239C59.8474 105.131 64.6774 103.136 68.2831 99.6644L77.9874 89.698L92.7396 90.5763L100.566 91.0345L142.827 123.263L162.392 99.3971L180 77.4024Z" fill="#FFC359" fill-opacity="0.64"/>
<g style="mix-blend-mode:multiply">
<path d="M133.044 91.6444C158.977 91.6444 180 71.1291 180 45.8222C180 20.5153 158.977 0 133.044 0C107.111 0 86.0874 20.5153 86.0874 45.8222C86.0874 71.1291 107.111 91.6444 133.044 91.6444Z" fill="#FFC359"/>
</g>
<path d="M126.392 63.9588L109.565 47.5391L116.609 40.6658L126.392 50.2121L149.478 27.6829L156.522 34.5562L126.392 63.9588Z" fill="white"/>
</g>
<defs>
<clipPath id="clip0_6717_151906">
<rect width="180" height="175.652" fill="white"/>
</clipPath>
</defs>
</svg>

<svg width="180" height="176" fill="none" xmlns="http://www.w3.org/2000/svg"><g clip-path="url(#a)"><path d="m97.826 94.585-18.391-1.069-8.492 8.706c-4.286 4.211-10.08 6.634-16.16 6.759a23.117 23.117 0 0 1-6.692-1.031 27.3 27.3 0 0 1-9.587-5.27l-2.66-2.482 2.426-2.672L61.748 71.56 38.27 51.74 0 93.898l34.865 28.562h2.348a10.906 10.906 0 0 1 5.713 2.33 10.166 10.166 0 0 1 2.599 3.161 9.936 9.936 0 0 1 1.119 3.903l3.052-3.551a10.576 10.576 0 0 1 6.232-3.616c2.45-.447 4.984-.03 7.15 1.175a10.342 10.342 0 0 1 4.674 5.408 10.039 10.039 0 0 1-.017 7.075 11.01 11.01 0 0 1 2.739-.381 10.678 10.678 0 0 1 6.77 2.405 10.209 10.209 0 0 1 2.58 3.128 9.977 9.977 0 0 1 1.137 3.86 9.744 9.744 0 0 1-.704 4.62 11.02 11.02 0 0 1 2.465-.343c2.359.013 4.64.823 6.456 2.291a9.782 9.782 0 0 1 2.444 2.97 9.517 9.517 0 0 1 .657 7.443 9.685 9.685 0 0 1-1.888 3.334l-3.013 3.551h7.826a9.813 9.813 0 0 0 3.938-.874 9.596 9.596 0 0 0 3.223-2.372l4.187-4.926a7.69 7.69 0 0 0 5.46 1.367 7.603 7.603 0 0 0 4.91-2.703l4.774-5.69 1.682 1.184a5.658 5.658 0 0 0 1.976.908 5.712 5.712 0 0 0 4.235-.62 5.536 5.536 0 0 0 1.615-1.434l5.753-6.797 4.147 2.979a6.978 6.978 0 0 0 5.027 1.249 6.886 6.886 0 0 0 4.482-2.548l4.344-5.46a4.988 4.988 0 0 0 1.029-3.683 5.048 5.048 0 0 0-1.89-3.343l-56.27-43.875Z" fill="#FFC359" fill-opacity=".64"/><path d="M41.401 136.775a6.5 6.5 0 0 0 1.532-4.813 6.557 6.557 0 0 0-2.392-4.466 6.748 6.748 0 0 0-4.305-1.527 6.85 6.85 0 0 0-2.874.615 6.705 6.705 0 0 0-2.33 1.752l-2.348 2.749-2.113 2.559a6.498 6.498 0 0 0-1.493 4.745 6.552 6.552 0 0 0 2.315 4.419 6.732 6.732 0 0 0 2.304 1.256 6.843 6.843 0 0 0 5.155-.435 6.656 6.656 0 0 0 2.05-1.623l2.073-2.367 2.426-2.864ZM63.04 139.038a6.498 6.498 0 0 0 1.51-4.765 6.555 6.555 0 0 0-2.332-4.438 6.913 6.913 0 0 0-4.344-1.527 6.84 6.84 0 0 0-2.854.619 6.69 6.69 0 0 0-2.311 1.748l-10.252 11.952-3.64 4.201a6.5 6.5 0 0 0-1.53 4.813 6.559 6.559 0 0 0 2.392 4.466 6.754 6.754 0 0 0 4.304 1.527 6.937 6.937 0 0 0 2.865-.605 6.788 6.788 0 0 0 2.34-1.724l3.521-4.162 10.33-12.105ZM74.895 143.084a6.755 6.755 0 0 0-4.305-1.528 6.88 6.88 0 0 0-2.874.615 6.72 6.72 0 0 0-2.33 1.753l-8.844 10.31-2.386 2.787a6.533 6.533 0 0 0-1.317 2.222 6.424 6.424 0 0 0 .34 5.023 6.574 6.574 0 0 0 1.603 2.034 6.732 6.732 0 0 0 2.304 1.256 6.82 6.82 0 0 0 5.155-.435 6.653 6.653 0 0 0 2.05-1.622l2.347-2.75 8.922-10.386a6.505 6.505 0 0 0 1.624-4.773 6.548 6.548 0 0 0-2.29-4.506ZM86.792 156.548a6.328 6.328 0 0 0-4.516-1.389 6.274 6.274 0 0 0-4.21 2.115l-7.122 8.439-.235.305a5.926 5.926 0 0 0-1.16 4.302 5.995 5.995 0 0 0 2.177 3.908 6.112 6.112 0 0 0 3.913 1.413 6.23 6.23 0 0 0 2.64-.56 6.076 6.076 0 0 0 2.134-1.617l1.996-2.329 5.126-5.957a5.993 5.993 0 0 0 1.214-2.086 5.893 5.893 0 0 0-.404-4.685 6.066 6.066 0 0 0-1.553-1.859ZM180 77.402l-45.508-34.175-18.235 23.713-30.17-2.788h-2.152c-3.273 0-6.51.68-9.492 1.997a22.979 22.979 0 0 0-7.803 5.64l-25.553 28.257a23.034 23.034 0 0 0 9.783 4.735 18.2 18.2 0 0 0 3.913.458c5.064-.108 9.894-2.103 13.5-5.575l9.704-9.966 14.753.878 7.826.459 42.261 32.228 19.565-23.866L180 77.402Z" fill="#FFC359" fill-opacity=".64"/><path d="M133.044 91.644C158.977 91.644 180 71.13 180 45.822 180 20.515 158.977 0 133.044 0c-25.933 0-46.957 20.515-46.957 45.822 0 25.307 21.024 45.822 46.957 45.822Z" fill="#FFC359" style="mix-blend-mode:multiply"/><path d="m126.392 63.959-16.827-16.42 7.044-6.873 9.783 9.546 23.086-22.53 7.044 6.874-30.13 29.403Z" fill="#fff"/></g><defs><clipPath id="a"><path fill="#fff" d="M0 0h180v175.652H0z"/></clipPath></defs></svg>
